flaticon/household/couch-10.svg

<svg xmlns="http://www.w3.org/2000/svg" width="32" height="32" viewBox="0 0 24 24">
    <path d="M 21.601562 7.613281 L 12.398438 7.613281 C 10.371094 7.613281 9.972656 7.132812 9.246094 6.265625 C 9.160156 6.164062 9.070312 6.058594 8.972656 5.945312 C 7 3.667969 3.632812 3.328125 1.46875 5.1875 C 1.375 5.265625 1.289062 5.347656 1.203125 5.433594 C 0.425781 6.222656 0 7.324219 0 8.53125 L 0 15.039062 C 0 16.457031 0.996094 17.640625 2.328125 17.9375 L 2.007812 19.53125 C 1.984375 19.652344 2.015625 19.773438 2.089844 19.863281 C 2.167969 19.957031 2.28125 20.011719 2.398438 20.011719 L 3.199219 20.011719 C 3.304688 20.011719 3.40625 19.96875 3.484375 19.894531 L 5.367188 18.011719 L 18.632812 18.011719 L 20.515625 19.894531 C 20.59375 19.96875 20.695312 20.011719 20.800781 20.011719 L 21.601562 20.011719 C 21.71875 20.011719 21.832031 19.957031 21.910156 19.863281 C 21.984375 19.773438 22.015625 19.652344 21.992188 19.53125 L 21.671875 17.9375 C 23.003906 17.644531 24 16.457031 24 15.039062 L 24 10.011719 C 24 8.6875 22.921875 7.613281 21.601562 7.613281 Z M 21.027344 14.8125 L 2.972656 14.8125 C 2.375 14.8125 1.816406 14.570312 1.402344 14.136719 C 1.363281 14.097656 1.324219 14.070312 1.277344 14.046875 C 1.320312 13.992188 1.371094 13.9375 1.421875 13.886719 C 1.453125 13.855469 1.480469 13.820312 1.511719 13.792969 C 1.609375 13.707031 1.710938 13.625 1.824219 13.554688 C 2.234375 13.753906 2.859375 13.984375 3.515625 14.15625 C 3.519531 14.15625 3.519531 14.15625 3.519531 14.15625 C 3.601562 14.179688 3.683594 14.199219 3.765625 14.21875 C 3.789062 14.222656 3.808594 14.226562 3.828125 14.230469 C 3.898438 14.25 3.96875 14.261719 4.042969 14.277344 C 4.070312 14.285156 4.09375 14.289062 4.121094 14.292969 C 4.191406 14.308594 4.257812 14.320312 4.328125 14.332031 C 4.355469 14.335938 4.378906 14.339844 4.40625 14.34375 C 4.476562 14.355469 4.546875 14.363281 4.617188 14.371094 C 4.636719 14.375 4.65625 14.375 4.675781 14.378906 C 4.753906 14.386719 4.828125 14.394531 4.902344 14.398438 C 4.910156 14.398438 4.921875 14.398438 4.933594 14.398438 C 5.011719 14.40625 5.089844 14.40625 5.167969 14.40625 C 5.167969 14.40625 5.171875 14.40625 5.171875 14.40625 C 5.175781 14.40625 5.175781 14.40625 5.179688 14.40625 C 5.28125 14.40625 5.378906 14.402344 5.472656 14.394531 C 5.476562 14.390625 5.480469 14.390625 5.488281 14.390625 C 5.582031 14.382812 5.671875 14.367188 5.757812 14.347656 C 5.839844 14.328125 5.917969 14.304688 5.988281 14.273438 C 5.988281 14.269531 5.988281 14.269531 5.992188 14.269531 C 6.066406 14.234375 6.136719 14.195312 6.195312 14.148438 C 6.234375 14.117188 6.285156 14.074219 6.332031 14.011719 L 17.667969 14.011719 C 17.71875 14.074219 17.765625 14.117188 17.804688 14.148438 C 17.863281 14.195312 17.933594 14.234375 18.011719 14.269531 C 18.011719 14.269531 18.011719 14.269531 18.015625 14.273438 C 18.15625 14.335938 18.328125 14.371094 18.519531 14.390625 C 18.519531 14.390625 18.519531 14.394531 18.523438 14.394531 C 18.695312 14.410156 18.882812 14.410156 19.078125 14.398438 C 19.082031 14.398438 19.085938 14.398438 19.089844 14.398438 C 19.171875 14.394531 19.253906 14.386719 19.335938 14.375 C 19.347656 14.375 19.359375 14.375 19.367188 14.371094 C 19.445312 14.363281 19.527344 14.351562 19.609375 14.339844 C 19.625 14.339844 19.640625 14.335938 19.65625 14.332031 C 19.734375 14.320312 19.8125 14.304688 19.890625 14.289062 C 19.90625 14.289062 19.921875 14.285156 19.9375 14.28125 C 20.023438 14.265625 20.105469 14.246094 20.1875 14.226562 C 20.195312 14.226562 20.203125 14.226562 20.210938 14.222656 C 20.964844 14.046875 21.710938 13.78125 22.175781 13.554688 C 22.289062 13.625 22.390625 13.703125 22.488281 13.792969 C 22.519531 13.820312 22.546875 13.855469 22.578125 13.886719 C 22.628906 13.9375 22.679688 13.992188 22.722656 14.046875 C 22.675781 14.066406 22.636719 14.097656 22.597656 14.132812 C 22.183594 14.570312 21.625 14.8125 21.027344 14.8125 Z M 0.800781 13.371094 L 0.800781 11.996094 C 0.804688 12.402344 0.929688 12.773438 1.148438 13.054688 C 1.035156 13.144531 0.925781 13.242188 0.828125 13.34375 C 0.820312 13.355469 0.808594 13.359375 0.800781 13.371094 Z M 5.699219 13.519531 C 5.664062 13.554688 5.601562 13.578125 5.519531 13.597656 C 5.507812 13.597656 5.5 13.601562 5.492188 13.601562 C 5.460938 13.609375 5.421875 13.609375 5.386719 13.613281 C 5.363281 13.613281 5.339844 13.617188 5.3125 13.617188 C 5.285156 13.617188 5.25 13.617188 5.21875 13.617188 C 5.179688 13.617188 5.140625 13.617188 5.09375 13.613281 C 5.070312 13.613281 5.042969 13.609375 5.015625 13.609375 C 4.960938 13.605469 4.902344 13.601562 4.84375 13.59375 C 4.820312 13.589844 4.796875 13.589844 4.777344 13.585938 C 4.710938 13.578125 4.644531 13.570312 4.578125 13.558594 C 4.550781 13.554688 4.523438 13.550781 4.496094 13.546875 C 4.4375 13.535156 4.378906 13.527344 4.320312 13.515625 C 4.273438 13.507812 4.226562 13.496094 4.179688 13.488281 C 4.148438 13.480469 4.117188 13.476562 4.085938 13.46875 C 3.34375 13.308594 2.527344 13.046875 2.015625 12.753906 C 2.011719 12.75 2.007812 12.75 2.003906 12.746094 C 1.953125 12.71875 1.90625 12.6875 1.871094 12.65625 C 1.679688 12.507812 1.570312 12.179688 1.605469 11.84375 C 1.632812 11.566406 1.757812 11.34375 1.921875 11.261719 C 1.976562 11.234375 2.027344 11.21875 2.101562 11.210938 C 2.152344 11.203125 2.203125 11.203125 2.257812 11.203125 C 3.378906 11.203125 5.148438 12.300781 5.636719 13.339844 C 5.691406 13.453125 5.695312 13.507812 5.699219 13.519531 Z M 18.363281 13.339844 C 18.851562 12.304688 20.617188 11.203125 21.761719 11.203125 C 21.816406 11.203125 21.871094 11.207031 21.925781 11.210938 C 21.972656 11.21875 22.023438 11.234375 22.078125 11.261719 C 22.242188 11.34375 22.367188 11.566406 22.394531 11.84375 C 22.429688 12.179688 22.320312 12.507812 22.128906 12.65625 C 22.09375 12.6875 22.046875 12.71875 21.996094 12.746094 C 21.992188 12.75 21.988281 12.75 21.984375 12.753906 C 21.332031 13.128906 20.175781 13.457031 19.328125 13.578125 C 19.324219 13.578125 19.320312 13.578125 19.320312 13.578125 C 19.238281 13.589844 19.160156 13.597656 19.085938 13.605469 C 19.082031 13.605469 19.074219 13.605469 19.070312 13.609375 C 18.996094 13.613281 18.925781 13.621094 18.863281 13.621094 C 18.859375 13.621094 18.855469 13.621094 18.851562 13.621094 C 18.578125 13.632812 18.382812 13.605469 18.308594 13.53125 C 18.308594 13.527344 18.308594 13.527344 18.304688 13.523438 C 18.304688 13.5 18.3125 13.445312 18.363281 13.339844 Z M 22.851562 13.054688 C 23.070312 12.773438 23.195312 12.398438 23.199219 11.996094 L 23.199219 13.371094 C 23.191406 13.359375 23.179688 13.355469 23.171875 13.34375 C 23.074219 13.242188 22.964844 13.144531 22.851562 13.054688 Z M 1.773438 5.996094 C 1.84375 5.925781 1.914062 5.859375 1.988281 5.792969 C 3.820312 4.222656 6.683594 4.523438 8.371094 6.472656 C 8.460938 6.578125 8.546875 6.679688 8.632812 6.78125 C 9.394531 7.691406 9.996094 8.410156 12.398438 8.410156 L 21.597656 8.410156 C 22.480469 8.410156 23.199219 9.128906 23.199219 10.011719 L 23.199219 11.988281 C 23.199219 11.914062 23.195312 11.839844 23.1875 11.761719 C 23.132812 11.207031 22.847656 10.75 22.433594 10.542969 C 22.292969 10.476562 22.152344 10.433594 21.976562 10.414062 C 20.523438 10.269531 18.296875 11.597656 17.636719 13 C 17.601562 13.074219 17.578125 13.144531 17.558594 13.210938 L 6.441406 13.210938 C 6.421875 13.144531 6.398438 13.074219 6.363281 13 C 5.703125 11.597656 3.476562 10.269531 1.988281 10.417969 C 1.847656 10.433594 1.707031 10.476562 1.566406 10.542969 C 1.148438 10.75 0.867188 11.207031 0.808594 11.761719 C 0.804688 11.839844 0.800781 11.914062 0.800781 11.988281 L 0.800781 8.53125 C 0.800781 7.546875 1.15625 6.625 1.773438 5.996094 Z M 3.035156 19.210938 L 2.886719 19.210938 L 3.128906 18.011719 L 4.234375 18.011719 Z M 20.964844 19.210938 L 19.765625 18.011719 L 20.871094 18.011719 L 21.113281 19.210938 Z M 21.027344 17.210938 L 2.972656 17.210938 C 1.773438 17.210938 0.800781 16.238281 0.800781 15.039062 C 0.800781 15 0.8125 14.960938 0.832031 14.925781 C 0.832031 14.925781 0.832031 14.921875 0.835938 14.921875 C 0.863281 14.875 0.90625 14.839844 0.957031 14.820312 C 0.992188 14.855469 1.03125 14.882812 1.066406 14.910156 C 1.601562 15.363281 2.265625 15.613281 2.972656 15.613281 L 21.027344 15.613281 C 21.734375 15.613281 22.402344 15.363281 22.933594 14.914062 C 22.96875 14.882812 23.007812 14.855469 23.042969 14.824219 C 23.09375 14.839844 23.136719 14.875 23.164062 14.921875 C 23.167969 14.925781 23.167969 14.925781 23.167969 14.925781 C 23.1875 14.960938 23.199219 15 23.199219 15.039062 C 23.199219 16.238281 22.226562 17.210938 21.027344 17.210938 Z M 21.027344 17.210938"/>
</svg>

<svg xmlns="http://www.w3.org/2000/svg" width="32" height="32" viewBox="0 0 24 24">
    <path d="M21.602 7.613h-9.204c-2.027 0-2.425-.48-3.152-1.347a45.315 45.315 0 0 0-.273-.32C7 3.667 3.633 3.327 1.469 5.187a3.96 3.96 0 0 0-.266.246C.426 6.223 0 7.324 0 8.53v6.508c0 1.418.996 2.602 2.328 2.899l-.32 1.593a.4.4 0 0 0 .39.48H3.2a.416.416 0 0 0 .285-.116l1.883-1.883h13.266l1.883 1.883c.078.074.18.117.285.117h.8a.404.404 0 0 0 .391-.48l-.32-1.595A2.97 2.97 0 0 0 24 15.04v-5.027a2.401 2.401 0 0 0-2.398-2.399zm-.575 7.2H2.973a2.157 2.157 0 0 1-1.57-.676.461.461 0 0 0-.126-.09c.043-.055.094-.11.145-.16.031-.032.058-.067.09-.094.097-.086.199-.168.312-.238.41.199 1.035.43 1.692.601h.004c.082.024.164.043.246.063l.062.011c.07.02.14.032.215.047a3.855 3.855 0 0 0 .285.055l.078.012c.07.011.14.02.211.027.02.004.04.004.059.008.078.008.152.016.226.02h.032c.078.007.156.007.234.007h.012c.101 0 .199-.004.293-.011.004-.004.007-.004.015-.004.094-.008.184-.024.27-.043.082-.02.16-.043.23-.075 0-.003 0-.003.004-.003.074-.036.145-.075.203-.122a.746.746 0 0 0 .137-.136h11.336c.05.062.098.105.137.136a.963.963 0 0 0 .207.122l.004.003c.14.063.312.098.504.118 0 0 0 .004.003.004.172.015.36.015.555.003h.012a2.62 2.62 0 0 0 .246-.023c.012 0 .023 0 .031-.004.078-.008.16-.02.242-.031a4.694 4.694 0 0 0 .578-.113c.008 0 .016 0 .024-.004.754-.176 1.5-.442 1.965-.668.113.07.215.148.312.238.032.027.059.062.09.094.05.05.102.105.145.16a.447.447 0 0 0-.125.086c-.414.437-.973.68-1.57.68zM.801 13.37v-1.375c.004.406.129.777.347 1.059a3.24 3.24 0 0 0-.32.289c-.008.011-.02.015-.027.027zm4.898.149a.386.386 0 0 1-.18.078c-.011 0-.019.004-.027.004-.031.007-.07.007-.105.011-.024 0-.047.004-.074.004h-.094c-.04 0-.078 0-.125-.004-.024 0-.051-.004-.078-.004-.055-.004-.114-.007-.172-.015-.024-.004-.047-.004-.067-.008-.066-.008-.132-.016-.199-.027l-.082-.012c-.059-.012-.117-.02-.176-.031-.047-.008-.093-.02-.14-.028-.032-.008-.063-.011-.094-.02-.742-.16-1.559-.421-2.07-.714-.004-.004-.008-.004-.012-.008a.715.715 0 0 1-.133-.09c-.191-.148-.3-.476-.266-.812.028-.278.153-.5.317-.582a.485.485 0 0 1 .18-.051c.05-.008.101-.008.156-.008 1.12 0 2.89 1.098 3.379 2.137.054.113.058.168.062.18zm12.664-.18c.489-1.035 2.254-2.137 3.399-2.137.054 0 .11.004.164.008a.536.536 0 0 1 .152.05c.164.083.29.305.317.583.035.336-.075.664-.266.812a.715.715 0 0 1-.133.09c-.004.004-.008.004-.012.008-.652.375-1.808.703-2.656.824h-.008c-.082.012-.16.02-.234.027-.004 0-.012 0-.016.004-.074.004-.144.012-.207.012h-.011c-.274.012-.47-.016-.543-.09 0-.004 0-.004-.004-.008 0-.023.008-.078.058-.183zm4.489-.285c.218-.282.343-.657.347-1.059v1.375c-.008-.012-.02-.016-.027-.027a3.24 3.24 0 0 0-.32-.29zM1.773 5.996c.07-.07.141-.137.215-.203 1.832-1.57 4.696-1.27 6.383.68l.262.308c.762.91 1.363 1.63 3.765 1.63h9.2c.882 0 1.601.718 1.601 1.6v1.977c0-.074-.004-.148-.012-.226-.054-.555-.34-1.012-.753-1.219a1.384 1.384 0 0 0-.457-.129c-1.454-.144-3.68 1.184-4.34 2.586a1.412 1.412 0 0 0-.078.21H6.44a1.412 1.412 0 0 0-.078-.21c-.66-1.402-2.886-2.73-4.375-2.582-.14.016-.281.059-.422.125-.418.207-.699.664-.757 1.219-.004.078-.008.152-.008.226V8.531c0-.984.355-1.906.972-2.535zm1.262 13.215h-.148l.242-1.2h1.105zm17.93 0l-1.2-1.2h1.106l.242 1.2zm.062-2H2.973c-1.2 0-2.172-.973-2.172-2.172 0-.039.011-.078.031-.113 0 0 0-.004.004-.004a.238.238 0 0 1 .121-.102c.035.035.074.063.11.09a2.93 2.93 0 0 0 1.906.703h18.054a2.94 2.94 0 0 0 1.907-.699c.035-.031.074-.059.109-.09.05.016.094.051.121.098l.004.004c.02.035.031.074.031.113 0 1.2-.972 2.172-2.172 2.172zm0 0"/>
</svg>
